X:56
T:Reel of Mullinavat
R:reel
Z:Transcribed by Dave Marshall
M:C|
K:Edor
|:gfed edBA|GBAG EDB,D|G~E3 GFGB | dBBA B2ef|
gfed edB=c | BAGF E2EF | G~E3 GFGA | Bdef e2ef:|
|:geBe gabg|afdf afdf|geBe gabg|agfg ~e3f|
geBe gabg|afde f~a3|bfaf gfed|Bgfg e2ef:|
